src/assets/images/cog.svg

<svg height="32" viewBox="0 0 32 32" width="32" xmlns="http://www.w3.org/2000/svg"><path d="m22.9626062 17.7382838-.9783-.56481c.0615001-.4870563.0615001-.9799138 0-1.46697l.9783-.56481c.28728-.16584.42585-.50706.33138-.82503-.33642-1.13247-.93525-2.15184-1.72605-2.98785-.22902-.2421-.59451-.29508-.88311-.12846l-.97686.56394c-.390737-.2973676-.817513-.5441253-1.27017-.7344v-1.12842005c0-.3339-.22956-.62412-.55452-.70101-1.12932-.26727-2.31354-.2673-3.4431 0-.32493.07689-.55452.36708-.55452.70101v1.12842005c-.4526604.1902677-.8794373.437026-1.27017.7344l-.97686-.56394c-.28863-.16662-.65412-.11364-.88311.12846-.79079997.83601-1.38962997 1.85541-1.72604997 2.98785-.09447.31797.0441.65916.33138.82503l.97829997.56481c-.0615.4870562-.0615.9799137 0 1.46697l-.97829997.56481c-.28728.16584-.42585.50706-.33138.82503.33642 1.13244.93525 2.15184 1.72604997 2.98785.22902.2421.59451.29508.88311.12849l.97686-.56394c.3907306.297369.8175081.5441176 1.27017.73437v1.12842c0 .3339.22956.62412.55452.70101 1.12935.26727 2.31354.2673 3.4431 0 .32493-.07689.55452-.36708.55452-.70101v-1.12842c.4526536-.1902691.8794291-.4370165 1.27017-.73437l.97686.56394c.2886.16662.65409.11364.88311-.12849.7908-.83601 1.38963-1.85541 1.72605-2.98785.09447-.31797-.0441-.65916-.33138-.82503zm-1.96437 3.01383-1.38927-.8022c-.80964.69213-1.09677.86628-2.13117 1.23177v1.60437c-.86824.1791003-1.7639.1791003-2.63214 0v-1.60437c-1.00863-.35637-1.30065-.52185-2.13117-1.23177l-1.38927.8022c-.5913-.6627-1.04067-1.43967-1.31787-2.27874l1.38987-.8022c-.19605-1.06251-.19614-1.39932 0-2.46237l-1.38987-.8022c.2772-.83907.7266-1.61607 1.31787-2.27907l1.38927.8028c.82131-.70302 1.11189-.87195 2.13117-1.23207v-1.60434c.8682095-.17939987 1.7639306-.17939987 2.63214 0v1.60437c1.01934.36015 1.30995.52911 2.13117 1.23207l1.38927-.8028c.59127.66297 1.04067 1.43997 1.31787 2.27907l-1.38987.8022c.19608 1.06278.19614 1.39932 0 2.46237l1.38987.8022c-.2772.83904-.72657 1.61604-1.31787 2.27871zm-4.83651-7.19211c-1.58805 0-2.88 1.29195-2.88 2.88s1.29195 2.88 2.88 2.88 2.88-1.29195 2.88-2.88-1.29195-2.88-2.88-2.88zm0 4.8c-1.0587 0-1.92-.8613-1.92-1.92s.8613-1.92 1.92-1.92 1.92.8613 1.92 1.92-.8613 1.92-1.92 1.92z" fill="#ff9580" fill-rule="evenodd"/></svg>

<svg xmlns="http://www.w3.org/2000/svg" width="32" height="32" viewBox="0 0 32 32">
  <path fill="#FF9580" fill-rule="evenodd" d="M22.9626062,17.7382838 L21.9843062,17.1734738 C22.0458063,16.6864175 22.0458063,16.19356 21.9843062,15.7065038 L22.9626062,15.1416938 C23.2498862,14.9758538 23.3884562,14.6346338 23.2939862,14.3166638 C22.9575662,13.1841938 22.3587362,12.1648238 21.5679362,11.3288138 C21.3389162,11.0867138 20.9734262,11.0337338 20.6848262,11.2003538 L19.7079662,11.7642938 C19.3172292,11.4669262 18.8904532,11.2201685 18.4377962,11.0298938 L18.4377962,9.90147375 C18.4377962,9.56757375 18.2082362,9.27735375 17.8832762,9.20046375 C16.7539562,8.93319375 15.5697362,8.93316375 14.4401762,9.20046375 C14.1152462,9.27735375 13.8856562,9.56754375 13.8856562,9.90147375 L13.8856562,11.0298938 C13.4329958,11.2201615 13.0062189,11.4669198 12.6154862,11.7642938 L11.6386262,11.2003538 C11.3499962,11.0337338 10.9845062,11.0867138 10.7555162,11.3288138 C9.96471623,12.1648238 9.36588623,13.1842238 9.02946623,14.3166638 C8.93499623,14.6346338 9.07356623,14.9758238 9.36084623,15.1416938 L10.3391462,15.7065038 C10.2776462,16.19356 10.2776462,16.6864175 10.3391462,17.1734738 L9.36084623,17.7382838 C9.07356623,17.9041238 8.93499623,18.2453438 9.02946623,18.5633138 C9.36588623,19.6957538 9.96471623,20.7151538 10.7555162,21.5511638 C10.9845362,21.7932638 11.3500262,21.8462438 11.6386262,21.6796538 L12.6154862,21.1157138 C13.0062168,21.4130828 13.4329943,21.6598314 13.8856562,21.8500838 L13.8856562,22.9785038 C13.8856562,23.3124038 14.1152162,23.6026238 14.4401762,23.6795138 C15.5695262,23.9467838 16.7537162,23.9468138 17.8832762,23.6795138 C18.2082062,23.6026238 18.4377962,23.3124338 18.4377962,22.9785038 L18.4377962,21.8500838 C18.8904498,21.6598147 19.3172253,21.4130673 19.7079662,21.1157138 L20.6848262,21.6796538 C20.9734262,21.8462738 21.3389162,21.7932938 21.5679362,21.5511638 C22.3587362,20.7151538 22.9575662,19.6957538 23.2939862,18.5633138 C23.3884562,18.2453438 23.2498862,17.9041538 22.9626062,17.7382838 L22.9626062,17.7382838 Z M20.9982362,20.7521138 L19.6089662,19.9499138 C18.7993262,20.6420438 18.5121962,20.8161938 17.4777962,21.1816838 L17.4777962,22.7860538 C16.6095562,22.9651541 15.7138962,22.9651541 14.8456562,22.7860538 L14.8456562,21.1816838 C13.8370262,20.8253138 13.5450062,20.6598338 12.7144862,19.9499138 L11.3252162,20.7521138 C10.7339162,20.0894138 10.2845462,19.3124438 10.0073462,18.4733738 L11.3972162,17.6711738 C11.2011662,16.6086638 11.2010762,16.2718538 11.3972162,15.2088038 L10.0073462,14.4066038 C10.2845462,13.5675338 10.7339462,12.7905338 11.3252162,12.1275338 L12.7144862,12.9303338 C13.5357962,12.2273138 13.8263762,12.0583838 14.8456562,11.6982638 L14.8456562,10.0939238 C15.7138657,9.91452393 16.6095868,9.91452393 17.4777962,10.0939238 L17.4777962,11.6982938 C18.4971362,12.0584438 18.7877462,12.2274038 19.6089662,12.9303638 L20.9982362,12.1275638 C21.5895062,12.7905338 22.0389062,13.5675338 22.3161062,14.4066338 L20.9262362,15.2088338 C21.1223162,16.2716138 21.1223762,16.6081538 20.9262362,17.6712038 L22.3161062,18.4734038 C22.0389062,19.3124438 21.5895362,20.0894438 20.9982362,20.7521138 Z M16.1617262,13.5600038 C14.5736762,13.5600038 13.2817262,14.8519538 13.2817262,16.4400038 C13.2817262,18.0280538 14.5736762,19.3200038 16.1617262,19.3200038 C17.7497762,19.3200038 19.0417262,18.0280538 19.0417262,16.4400038 C19.0417262,14.8519538 17.7497762,13.5600038 16.1617262,13.5600038 Z M16.1617262,18.3600038 C15.1030262,18.3600038 14.2417262,17.4987038 14.2417262,16.4400038 C14.2417262,15.3813038 15.1030262,14.5200038 16.1617262,14.5200038 C17.2204262,14.5200038 18.0817262,15.3813038 18.0817262,16.4400038 C18.0817262,17.4987038 17.2204262,18.3600038 16.1617262,18.3600038 Z"/>
</svg>
